Sources/FrostedUI/Resources/Icons.xcassets/sparkleFilled24.imageset/sparkle-filled-24.svg

<svg width="24" height="24" viewBox="0 0 24 24" fill="none" xmlns="http://www.w3.org/2000/svg" data-fui-icon="true">
  <path
    d="M17.5 12C17.0435 12 16.6386 12.2942 16.498 12.7285L15.5771 15.5771L12.7285 16.498C12.2942 16.6386 12 17.0435 12 17.5C12 17.9565 12.2942 18.3614 12.7285 18.502L15.5771 19.4229L16.498 22.2715C16.6386 22.7058 17.0435 23 17.5 23C17.9565 23 18.3614 22.7058 18.502 22.2715L19.4229 19.4229L22.2715 18.502C22.7058 18.3614 23 17.9565 23 17.5C23 17.0435 22.7058 16.6386 22.2715 16.498L19.4229 15.5771L18.502 12.7285C18.3614 12.2942 17.9565 12 17.5 12ZM8.5166 1C7.89075 1 7.33633 1.40295 7.14258 1.99805L5.98926 5.53809C5.91948 5.75208 5.75209 5.92049 5.53809 5.99023L1.99805 7.14258C1.40297 7.33633 1.00003 7.89078 1 8.5166C1 9.14245 1.40295 9.69687 1.99805 9.89062L5.53809 11.0439C5.75193 11.1137 5.91948 11.2813 5.98926 11.4951L7.14258 15.0352C7.33633 15.6303 7.89075 16.0332 8.5166 16.0332C9.14241 16.0332 9.69688 15.6302 9.89062 15.0352L11.043 11.4951C11.1127 11.2811 11.2811 11.1137 11.4951 11.0439L15.0352 9.89062C15.6303 9.69687 16.0332 9.14245 16.0332 8.5166C16.0332 7.89078 15.6302 7.33633 15.0352 7.14258L11.4951 5.99023C11.281 5.92049 11.1127 5.75224 11.043 5.53809L9.89062 1.99805C9.69688 1.40297 9.14241 1.00004 8.5166 1Z"
    fill="currentColor"
  />
</svg>

<svg xmlns="http://www.w3.org/2000/svg" width="24" height="24" fill="none" data-fui-icon="true" viewBox="0 0 24 24"><path fill="currentColor" d="M17.5 12c-.456 0-.861.294-1.002.729l-.92 2.848-2.85.921a1.053 1.053 0 0 0 0 2.004l2.85.92.92 2.85a1.053 1.053 0 0 0 2.004 0l.92-2.85 2.85-.92a1.053 1.053 0 0 0 0-2.004l-2.85-.92-.92-2.85A1.05 1.05 0 0 0 17.5 12M8.517 1c-.626 0-1.18.403-1.374.998l-1.154 3.54a.7.7 0 0 1-.45.452l-3.54 1.153a1.445 1.445 0 0 0-.001 2.748l3.54 1.153c.214.07.381.237.451.451l1.154 3.54a1.445 1.445 0 0 0 2.748 0l1.152-3.54a.7.7 0 0 1 .452-.451l3.54-1.153a1.445 1.445 0 0 0 0-2.748l-3.54-1.153a.7.7 0 0 1-.452-.452l-1.152-3.54A1.445 1.445 0 0 0 8.517 1"/></svg>
